dist/svg/u1F4BC.svg

<?xml version="1.0" encoding="UTF-8"?><svg id="a" xmlns="http://www.w3.org/2000/svg" viewBox="0 0 40 40"><rect width="40" height="40" fill="none"/><g><g><path d="M37.5,12.767v11.833H2.5V12.767c0-1.841,1.492-3.333,3.333-3.333h28.333c1.841,0,3.333,1.492,3.333,3.333Z" fill="#c3846c"/><path d="M37.5,24.6v7.5c0,1.841-1.492,3.333-3.333,3.333H5.833c-1.841,0-3.333-1.492-3.333-3.333v-7.5H37.5Z" fill="#956759"/></g><path d="M13.333,9.434h0c0-2.688,2.179-4.867,4.867-4.867h3.599c2.688,0,4.867,2.179,4.867,4.867h0" fill="none" stroke="#c3846c" stroke-miterlimit="10" stroke-width="2.5"/><path d="M23.333,24.566h0c0,1.344-1.09,2.434-2.434,2.434h-1.8c-1.344,0-2.434-1.09-2.434-2.434h6.667Z" fill="#ffc33a"/></g></svg>

<svg id="Layer_1" data-name="Layer 1" xmlns="http://www.w3.org/2000/svg" viewBox="0 0 40 40"><defs><style>.cls-1,.cls-4{fill:none;}.cls-2{fill:#c3846c;}.cls-3{fill:#956759;}.cls-4{stroke:#c3846c;stroke-miterlimit:10;stroke-width:2.5px;}.cls-5{fill:#ffc33a;}</style></defs><rect class="cls-1" width="40" height="40"/><path class="cls-2" d="M37.5,12.767V24.6H2.5V12.767A3.333,3.333,0,0,1,5.833,9.434H34.167A3.333,3.333,0,0,1,37.5,12.767Z"/><path class="cls-3" d="M37.5,24.6v7.5a3.334,3.334,0,0,1-3.333,3.334H5.833A3.334,3.334,0,0,1,2.5,32.1V24.6Z"/><path class="cls-4" d="M13.333,9.434h0A4.868,4.868,0,0,1,18.2,4.566h3.6a4.868,4.868,0,0,1,4.867,4.868h0"/><path class="cls-5" d="M23.333,24.566h0A2.433,2.433,0,0,1,20.9,27H19.1a2.433,2.433,0,0,1-2.433-2.434h6.666Z"/></svg>
